X:141
T:McMahon's Hornpipe
R:hornpipe
C:Sean Ryan (-1985)
S:Recording of Eddie Clarke from Miltown Malbay 1984
D:Matt Cunningham
Z:id:hn-hornpipe-141
M:C|
L:1/8
K:G
DGBG cGBG | DGBd gfga | bg~g2 egdB | cBAG FGEF |
DGBG cGBG | DGBd gfga | bg~g2 egdB |1 cAFA G2DD :|2 cAFA G2ga ||
|: bggb agef | gfgd edBd | eB~B2 eBgB | eB~B2 AGEG |
DGBG cGBG | DGBd gfga | bg~g2 egdB |1 cAFA G2ga :|2 cAFA G2DD || 
P:variations
|: DGBG cGBG | DGBd ~g3a | bg~g2 egdB | cBAG FD (3DEF |
GABG cGBG | DGBd ~g3a | bg~g2 egdB |1 cAFA G2 (3GFE :|2 cAFA G2ga ||
|: bg~g2 agef | gagd edBd | eB~B2 efgf | edcB AG (3EFG |
DGBG cGBG | DGBd gfga | bg~g2 egdB |1 cAFA G2ga :|2 cAFA G2 (3GFE || 

